packages/components/icon/src/assets/icons/associated.svg

<svg width="24" height="24" viewBox="0 0 24 24" fill="none" xmlns="http://www.w3.org/2000/svg">
<path fill-rule="evenodd" clip-rule="evenodd" d="M17.125 2C17.5203 2 17.8409 2.32042 17.8409 2.71591V18.9382C17.8409 19.3287 17.5203 19.6541 17.125 19.6541H4.71591C4.32042 19.6541 4 19.3287 4 18.9382V2.71591C4 2.32042 4.32042 2 4.71591 2H17.125ZM16.4091 3.43182H5.43182V18.2223H16.4091V3.43182ZM19.5114 4.38637C19.9067 4.38637 20.2273 4.70679 20.2273 5.10228V21.3246C20.2273 21.7151 19.9067 22.0405 19.5114 22.0405H7.10228C6.70679 22.0405 6.38637 21.7151 6.38637 21.3246V20.6087H18.7955V4.38637H19.5114Z" fill="currentColor"/>
</svg>

<svg viewBox="0 0 24 24" fill="none" xmlns="http://www.w3.org/2000/svg"><path fill-rule="evenodd" clip-rule="evenodd" d="M17.125 2c.395 0 .716.32.716.716v16.222a.72.72 0 0 1-.716.716H4.715A.719.719 0 0 1 4 18.938V2.716C4 2.32 4.32 2 4.716 2h12.409Zm-.716 1.432H5.432v14.79h10.977V3.432Zm3.102.954c.396 0 .716.32.716.716v16.223a.72.72 0 0 1-.716.716H7.102a.719.719 0 0 1-.716-.716v-.716h12.41V4.386h.715Z" fill="currentColor"/></svg>
